X:1
T: Miss L. Johnston's Compliments to Niel Gow
C:
R:Strathspey
Q: 128
K:C
M:4/4
L:1/16
|:G2|c6 GE F3G A2GF|E3F G2FE F2D2 D2G2|c6 GE F3G A2GF|EFGE DEFD E2C2 C2G2|
c6 GE F3G A2GF|E3F G2FE F2D2 D2G2|c6 GE F3G A2GF|EFGE DEFD E2C2 C2G2|
c4 g3e a3f g3e|c3e agfe d2dc B2A2|c4 g3e a3f g3c|A3f edcB c4 c3G|
c3e g2c'2 b2ab c'3g|f3d e3c dcBA GFED|E2c2 F2d2 G2e2 A2f2|e2dc EFGE D2C2 C2:|
